lite/images/sprite/horoscope-year-t/horoscope-year-t__fin~after.svg

<?xml version="1.0" encoding="utf-8"?>
<!DOCTYPE svg PUBLIC "-//W3C//DTD SVG 1.1//EN" "http://www.w3.org/Graphics/SVG/1.1/DTD/svg11.dtd">
<svg version="1.1" baseProfile="full"
 xmlns="http://www.w3.org/2000/svg"
 xmlns:xlink="http://www.w3.org/1999/xlink"
 xmlns:ev="http://www.w3.org/2001/xml-events" 
  height="35px" 
  width="38px" 
>
<path fill="rgb( 100, 185, 235 )"
 d="M31.654,33.952 C29.301,34.03 6.709,33.956 6.709,33.956 C6.709,33.956 0.82499999999999,33.795 1.45299999999997,26.971 C2.15899999999999,23.676 4.983,11.045 4.983,11.045 C4.983,11.045 33.772,11.032 33.772,11.032 C33.772,11.032 37.223,27.284 37.223,27.284 C37.223,27.284 37.616,33.717 31.654,33.952 ZM34.478,9.01099999999997 C34.478,9.01099999999997 4.35500000000002,9.01099999999997 4.35500000000002,9.01099999999997 C3.92200000000003,9.01099999999997 3.57100000000003,8.65999999999997 3.57100000000003,8.22699999999998 C3.57100000000003,8.22699999999998 3.57100000000003,7.83100000000002 3.57100000000003,7.83100000000002 C3.57100000000003,7.39800000000002 3.92200000000003,6.96400000000006 4.35500000000002,6.96400000000006 C4.35500000000002,6.96400000000006 18.7,6.96400000000006 18.7,6.96400000000006 C18.7,6.96400000000006 21.548,3.42200000000003 21.548,3.42200000000003 C21.47,3.17899999999997 21.417,2.92499999999995 21.417,2.65700000000004 C21.417,1.27099999999996 22.541,0.14700000000005 23.927,0.14700000000005 C25.313,0.14700000000005 26.437,1.27099999999996 26.437,2.65700000000004 C26.437,4.04300000000001 25.313,5.16700000000003 23.927,5.16700000000003 C23.797,5.16700000000003 23.672,5.14800000000002 23.547,5.12900000000002 C23.547,5.12900000000002 22.187,6.96400000000006 22.187,6.96400000000006 C22.187,6.96400000000006 34.478,6.96400000000006 34.478,6.96400000000006 C34.911,6.96400000000006 35.262,7.39800000000002 35.262,7.83100000000002 C35.262,7.83100000000002 35.262,8.22699999999998 35.262,8.22699999999998 C35.262,8.65999999999997 34.911,9.01099999999997 34.478,9.01099999999997 ZM18.083,5.76900000000001 C18.083,5.76900000000001 16.828,5.79399999999998 16.828,5.79399999999998 C16.828,5.79399999999998 16.123,5.09000000000003 16.123,5.09000000000003 C15.933,5.13599999999997 15.738,5.16700000000003 15.533,5.16700000000003 C14.147,5.16700000000003 13.023,4.04300000000001 13.023,2.65700000000004 C13.023,1.27099999999996 14.147,0.08100000000002 15.533,0.08100000000002 C16.92,0.08100000000002 18.044,1.27099999999996 18.044,2.65700000000004 C18.044,2.81200000000001 18.025,2.96199999999999 17.998,3.10900000000004 C17.998,3.10900000000004 19.181,4.46100000000001 19.181,4.46100000000001 C19.181,4.46100000000001 18.083,5.76900000000001 18.083,5.76900000000001 Z "/></svg>

<?xml version="1.0" encoding="utf-8"?><svg baseProfile="full" xmlns="http://www.w3.org/2000/svg" height="35" width="38"><path fill="rgb( 100, 185, 235 )" d="M31.654 33.952c-2.353.078-24.945.004-24.945.004s-5.886-.16-5.258-6.985c.706-3.293 3.53-15.924 3.53-15.924s28.79-.013 28.79-.013 3.45 16.252 3.45 16.252.393 6.433-5.57 6.668zm2.824-24.94s-30.123 0-30.123 0c-.433 0-.784-.352-.784-.785 0 0 0-.396 0-.396 0-.43.353-.865.786-.865 0 0 14.345 0 14.345 0s2.85-3.542 2.85-3.542c-.08-.243-.13-.497-.13-.765 0-1.386 1.122-2.51 2.51-2.51 1.384 0 2.51 1.124 2.51 2.51 0 1.386-1.126 2.51-2.51 2.51-.13 0-.257-.02-.38-.038 0 0-1.36 1.834-1.36 1.834s12.29 0 12.29 0c.432 0 .783.434.783.867 0 0 0 .398 0 .398 0 .433-.35.784-.784.784zM18.083 5.768s-1.255.024-1.255.024-.705-.704-.705-.704c-.19.046-.385.077-.59.077-1.386 0-2.51-1.124-2.51-2.51 0-1.386 1.124-2.576 2.51-2.576 1.387 0 2.51 1.19 2.51 2.576 0 .155-.018.305-.045.452 0 0 1.183 1.35 1.183 1.35s-1.096 1.31-1.096 1.31z"/></svg>
